svg/business/exchange_baht_line.svg

<?xml version="1.0" encoding="UTF-8"?>
<svg width="24px" height="24px" viewBox="0 0 24 24" version="1.1" xmlns="http://www.w3.org/2000/svg" xmlns:xlink="http://www.w3.org/1999/xlink">
    <title>exchange_bitcoin_2_line</title>
    <g id="页面-1" stroke="none" stroke-width="1" fill="none" fill-rule="evenodd">
        <g id="Business" transform="translate(-720.000000, -192.000000)" fill-rule="nonzero">
            <g id="exchange_bitcoin_2_line" transform="translate(720.000000, 192.000000)">
                <path d="M24,0 L24,24 L0,24 L0,0 L24,0 Z M12.5934901,23.257841 L12.5819402,23.2595131 L12.5108777,23.2950439 L12.4918791,23.2987469 L12.4918791,23.2987469 L12.4767152,23.2950439 L12.4056548,23.2595131 C12.3958229,23.2563662 12.3870493,23.2590235 12.3821421,23.2649074 L12.3780323,23.275831 L12.360941,23.7031097 L12.3658947,23.7234994 L12.3769048,23.7357139 L12.4804777,23.8096931 L12.4953491,23.8136134 L12.4953491,23.8136134 L12.5071152,23.8096931 L12.6106902,23.7357139 L12.6232938,23.7196733 L12.6232938,23.7196733 L12.6266527,23.7031097 L12.609561,23.275831 C12.6075724,23.2657013 12.6010112,23.2592993 12.5934901,23.257841 L12.5934901,23.257841 Z M12.8583906,23.1452862 L12.8445485,23.1473072 L12.6598443,23.2396597 L12.6498822,23.2499052 L12.6498822,23.2499052 L12.6471943,23.2611114 L12.6650943,23.6906389 L12.6699349,23.7034178 L12.6699349,23.7034178 L12.678386,23.7104931 L12.8793402,23.8032389 C12.8914285,23.8068999 12.9022333,23.8029875 12.9078286,23.7952264 L12.9118235,23.7811639 L12.8776777,23.1665331 C12.8752882,23.1545897 12.8674102,23.1470016 12.8583906,23.1452862 L12.8583906,23.1452862 Z M12.1430473,23.1473072 C12.1332178,23.1423925 12.1221763,23.1452606 12.1156365,23.1525954 L12.1099173,23.1665331 L12.0757714,23.7811639 C12.0751323,23.7926639 12.0828099,23.8018602 12.0926481,23.8045676 L12.108256,23.8032389 L12.3092106,23.7104931 L12.3186497,23.7024347 L12.3186497,23.7024347 L12.3225043,23.6906389 L12.340401,23.2611114 L12.337245,23.2485176 L12.337245,23.2485176 L12.3277531,23.2396597 L12.1430473,23.1473072 Z" id="MingCute" fill-rule="nonzero"></path>
                <path d="M1.99996545,12.0809 C1.99371555,11.2176391 2.91024272,10.7235541 3.61767439,11.105184 L3.71274,11.1627 L6.39059,12.967 C7.36328867,13.6224 6.76828858,15.1101097 5.65695436,14.9737051 L5.54019,14.9537 L4.47683,14.7204 C5.3375,17.0968 7.30716,19.0268 9.93145,19.73 C13.7625,20.7565 17.6913,18.8202 19.2809,15.3252 C19.5096,14.8225 20.1025,14.6003 20.6052,14.8289 C21.108,15.0576 21.3301,15.6505 21.1015,16.1532 C19.1137,20.5236 14.2048,22.9456 9.41381,21.6619 C5.40998,20.589 2.62997,17.2334 2.09416,13.3742 C2.03506,12.9485 2.00322,12.5166 1.99996545,12.0809 Z M12,6 C12.5523,6 13,6.44772 13,7 L13,8 L14,8 C15.3807,8 16.5,9.11929 16.5,10.5 C16.5,11.0628 16.314,11.5822 16.0002,12 C16.314,12.4178 16.5,12.9372 16.5,13.5 C16.5,14.8807 15.3807,16 14,16 L13,16 L13,17 C13,17.5523 12.5523,18 12,18 C11.4477,18 11,17.5523 11,17 L11,16 L9.1,16 C8.49249,16 8,15.5075 8,14.9 L8,9.1 C8,8.49249 8.49249,8 9.1,8 L11,8 L11,7 C11,6.44772 11.4477,6 12,6 Z M14,13 L10,13 L10,14 L14,14 C14.2761,14 14.5,13.7761 14.5,13.5 C14.5,13.2239 14.2761,13 14,13 Z M2.90276,7.8519 C4.89052,3.48157 9.79949,1.05954 14.5904,2.34327 C18.5943,3.4161 21.3743,6.7717 21.9101,10.6309 C21.9692,11.0566 22.001,11.4885 22.0042646,11.9242 C22.0105145,12.7874609 21.0940239,13.2815459 20.3865691,12.899916 L20.2915,12.8424 L17.6135,11.0381 C16.64084,10.3827 17.235804,8.89502771 18.3470454,9.03135352 L18.4638,9.05135 L19.5273,9.28457 C18.6666,6.90822 16.697,4.97828 14.0728,4.27513 C10.2418,3.2486 6.31293,5.18495 4.7233,8.67994 C4.49465,9.18267 3.90174,9.40485 3.39902,9.17619 C2.89629,8.94754 2.67411,8.35463 2.90276,7.8519 Z M14,10 L10,10 L10,11 L14,11 C14.2761,11 14.5,10.7761 14.5,10.5 C14.5,10.2239 14.2761,10 14,10 Z" id="形状" fill="#09244B"></path>
            </g>
        </g>
    </g>
</svg>

<svg xmlns="http://www.w3.org/2000/svg" width="24" height="24"><g fill="none" fill-rule="nonzero"><path d="M24 0v24H0V0zM12.593 23.258l-.011.002-.071.035-.02.004-.014-.004-.071-.035c-.01-.004-.019-.001-.024.005l-.004.01-.017.428.005.02.01.013.104.074.015.004.012-.004.104-.074.012-.016.004-.017-.017-.427c-.002-.01-.009-.017-.017-.018m.265-.113-.013.002-.185.093-.01.01-.003.011.018.43.005.012.008.007.201.093c.012.004.023 0 .029-.008l.004-.014-.034-.614c-.003-.012-.01-.02-.02-.022m-.715.002a.023.023 0 0 0-.027.006l-.006.014-.034.614c0 .012.007.02.017.024l.015-.002.201-.093.01-.008.004-.011.017-.43-.003-.012-.01-.01z"/><path fill="#09244B" d="M2 12.08c-.006-.862.91-1.356 1.618-.975l.095.058 2.678 1.804c.972.655.377 2.143-.734 2.007l-.117-.02-1.063-.234a8.002 8.002 0 0 0 14.804.605 1 1 0 0 1 1.82.828c-1.987 4.37-6.896 6.793-11.687 5.509A10.003 10.003 0 0 1 2 12.08M12 6a1 1 0 0 1 1 1v1h1a2.5 2.5 0 0 1 2 4 2.5 2.5 0 0 1-2 4h-1v1a1 1 0 1 1-2 0v-1H9.1A1.1 1.1 0 0 1 8 14.9V9.1A1.1 1.1 0 0 1 9.1 8H11V7a1 1 0 0 1 1-1m2 7h-4v1h4a.5.5 0 0 0 0-1M2.903 7.852C4.89 3.482 9.799 1.06 14.59 2.343a10.002 10.002 0 0 1 7.414 9.581c.007.863-.91 1.358-1.617.976l-.096-.058-2.678-1.804c-.972-.655-.377-2.143.734-2.007l.117.02 1.063.234A8.002 8.002 0 0 0 4.723 8.68a1 1 0 1 1-1.82-.828M14 10h-4v1h4a.5.5 0 0 0 0-1"/></g></svg>
